trunk/public/assets/images/icons/green/roles2.svg

<svg width="16" height="16" xmlns="http://www.w3.org/2000/svg" viewBox="0 0 16 16" shape-rendering="geometricPrecision" fill="#00962d"><path d="M6.55 6.983c1.628 0 2.94-1.314 2.94-2.94S8.18 1.106 6.55 1.106c-1.622 0-2.938 1.314-2.938 2.94s1.317 2.938 2.94 2.938zM9.366 13.378l-.402-3.99.41-1c-.03 0-.06-.008-.09-.008H3.81C2.253 8.38.986 9.655.986 11.212v3.684h11.133v-3.684c0-.05-.013-.1-.016-.152l-2.736 2.318z"/><path d="M14.93 2.83c.246-.632-.06-1.35-.69-1.597-.63-.256-1.346.05-1.604.68l-.368.918 2.292.92.37-.92zm-5.117 9.446l1.04-.887-1.17-.468.13 1.354zM9.54 9.642l2.292.92L14.31 4.38l-2.293-.918-2.476 6.18z"/></svg>

<?xml version="1.0"?><!DOCTYPE svg PUBLIC "-//W3C//DTD SVG 1.1//EN" "http://www.w3.org/Graphics/SVG/1.1/DTD/svg11.dtd"><svg width="16px" height="16px" xmlns="http://www.w3.org/2000/svg" viewBox="0 0 16 16" shape-rendering="geometricPrecision" fill="#00962d"><g><g><g><path d="M6.551,6.983c1.627,0,2.94-1.314,2.94-2.939s-1.313-2.939-2.94-2.939c-1.623,0-2.939,1.314-2.939,2.939 S4.929,6.983,6.551,6.983z"/><path d="M9.366,13.378l-0.402-3.99l0.409-1c-0.03,0-0.059-0.008-0.089-0.008H3.811c-1.559,0-2.826,1.275-2.826,2.832v3.684 h11.133v-3.684c0-0.051-0.013-0.1-0.016-0.152L9.366,13.378z"/></g><path d="M14.929,2.831c0.247-0.633-0.059-1.35-0.69-1.598c-0.63-0.256-1.345,0.051-1.603,0.68l0,0l-0.368,0.918l2.292,0.92 l0.371-0.92H14.929z M9.813,12.276l1.039-0.887l-1.168-0.467L9.813,12.276z M9.541,9.642l2.291,0.92l2.477-6.182l-2.292-0.918 L9.541,9.642z"/></g></g></svg>
